icons/filled/badge-ad.svg

<!--
category: Filled
version: "3.0.0-alpha.1"
-->
<svg
  xmlns="http://www.w3.org/2000/svg"
  width="24"
  height="24"
  viewBox="0 0 24 24"
  fill="none"
  stroke="currentColor"
  stroke-width="2"
  stroke-linecap="round"
  stroke-linejoin="round"
>
  <path d="M19 4a3 3 0 0 1 3 3v10a3 3 0 0 1 -3 3h-14a3 3 0 0 1 -3 -3v-10a3 3 0 0 1 3 -3zm-4 4h-1a1 1 0 0 0 -1 1v6a1 1 0 0 0 1 1h1a3 3 0 0 0 3 -3v-2a3 3 0 0 0 -3 -3m-6.5 0a2.5 2.5 0 0 0 -2.5 2.5v4.5a1 1 0 0 0 2 0v-1h1v1a1 1 0 0 0 .883 .993l.117 .007a1 1 0 0 0 1 -1v-4.5a2.5 2.5 0 0 0 -2.5 -2.5m6.5 2a1 1 0 0 1 1 1v2a1 1 0 0 1 -.883 .993l-.117 .007zm-6.5 0a.5 .5 0 0 1 .5 .5v1.5h-1v-1.5a.5 .5 0 0 1 .41 -.492z" stroke-width="0" fill="currentColor" />
</svg>

<!--
category: Filled
version: "3.0.0-alpha.1"
-->
<svg
  xmlns="http://www.w3.org/2000/svg"
  width="24"
  height="24"
  viewBox="0 0 24 24"
  fill="none"
  stroke="currentColor"
  stroke-width="2"
  stroke-linecap="round"
  stroke-linejoin="round"
>
  <path d="M19 4a3 3 0 0 1 3 3v10a3 3 0 0 1-3 3H5a3 3 0 0 1-3-3V7a3 3 0 0 1 3-3zm-4 4h-1a1 1 0 0 0-1 1v6a1 1 0 0 0 1 1h1a3 3 0 0 0 3-3v-2a3 3 0 0 0-3-3M8.5 8A2.5 2.5 0 0 0 6 10.5V15a1 1 0 0 0 2 0v-1h1v1a1 1 0 0 0 .883.993L10 16a1 1 0 0 0 1-1v-4.5A2.5 2.5 0 0 0 8.5 8m6.5 2a1 1 0 0 1 1 1v2a1 1 0 0 1-.883.993L15 14zm-6.5 0a.5.5 0 0 1 .5.5V12H8v-1.5a.5.5 0 0 1 .41-.492z" stroke-width="0" fill="currentColor" />
</svg>
